images/google-store.svg

<svg width="185" height="60" viewBox="0 0 185 60" fill="none" xmlns="http://www.w3.org/2000/svg">
<path d="M8 0H177C181.4 0 185 3.6 185 8V52C185 56.4 181.4 60 177 60H8C3.6 60 0 56.4 0 52V8C0 3.6 3.6 0 8 0Z" fill="#240C39"/>
<path d="M95.7 31.4001C93.2 31.4001 91.1 33.5001 91.1 36.0001C91.1 38.5001 93.2 40.6001 95.7 40.6001C98.2 40.6001 100.3 38.6001 100.3 36.0001C100.3 34.8001 99.8 33.6001 99 32.7001C98.1 31.8001 96.9 31.4001 95.7 31.4001ZM95.7 38.7001C94.6 38.8001 93.5 38.2001 93 37.1001C92.5 36.1001 92.7 34.8001 93.5 34.0001C94.3 33.2001 95.5 32.9001 96.6 33.3001C97.7 33.7001 98.4 34.7001 98.4 35.9001C98.4 36.6001 98.2 37.3001 97.7 37.8001C97.1 38.4001 96.4 38.7001 95.7 38.7001ZM85.6 31.4001C83.1 31.4001 81 33.5001 81 36.0001C81 38.5001 83.1 40.6001 85.6 40.6001C88.1 40.6001 90.2 38.6001 90.2 36.0001C90.2 34.8001 89.7 33.6001 88.9 32.7001C88 31.8001 86.8 31.4001 85.6 31.4001ZM85.6 38.7001C84.5 38.8001 83.4 38.2001 82.9 37.1001C82.4 36.1001 82.6 34.8001 83.4 34.0001C84.2 33.2001 85.4 32.9001 86.5 33.3001C87.6 33.7001 88.3 34.7001 88.3 35.9001C88.3 36.6001 88.1 37.3001 87.6 37.8001C87 38.4001 86.3 38.7001 85.6 38.7001ZM73.6 32.8001V34.7001H78.3C78.2 35.6001 77.8 36.5001 77.2 37.1001C76.3 38.1001 74.9 38.6001 73.6 38.5001C70.7 38.5001 68.4 36.2001 68.4 33.3001C68.4 30.4001 70.7 28.1001 73.6 28.1001C74.9 28.1001 76.2 28.6001 77.1 29.5001L78.5 28.1001C77.2 26.8001 75.4 26.1001 73.6 26.1001C71 26.0001 68.5 27.3001 67.2 29.6001C65.9 31.8001 65.9 34.6001 67.2 36.9001C68.5 39.1001 71 40.5001 73.6 40.4001C75.5 40.5001 77.3 39.8001 78.6 38.4001C79.7 37.2001 80.3 35.5001 80.3 33.9001C80.3 33.5001 80.3 33.1001 80.2 32.7001L73.6 32.8001ZM122.6 34.3001C122 32.6001 120.5 31.4001 118.7 31.4001C117.5 31.4001 116.4 31.9001 115.5 32.8001C114.7 33.7001 114.3 34.8001 114.3 36.0001C114.3 37.2001 114.7 38.4001 115.6 39.2001C116.5 40.1001 117.6 40.5001 118.9 40.5001C120.4 40.5001 121.9 39.8001 122.7 38.5001L121.1 37.4001C120.6 38.2001 119.8 38.7001 118.8 38.7001C117.8 38.7001 117 38.2001 116.6 37.3001L122.8 34.8001L122.6 34.3001ZM116.4 35.8001C116.4 35.1001 116.6 34.5001 117 34.0001C117.5 33.5001 118.1 33.2001 118.8 33.2001C119.5 33.2001 120.2 33.5001 120.5 34.2001L116.4 35.8001ZM111.4 40.2001H113.4V26.8001H111.4V40.2001ZM108.1 32.4001C107.4 31.7001 106.5 31.3001 105.6 31.3001C103.1 31.4001 101.2 33.4001 101.2 35.9001C101.2 38.4001 103.1 40.4001 105.6 40.5001C106.5 40.5001 107.4 40.1001 108 39.4001H108.1V40.1001C108.1 41.9001 107.2 42.8001 105.6 42.8001C104.6 42.8001 103.7 42.1001 103.3 41.2001L101.5 41.9001C102.2 43.5001 103.8 44.6001 105.6 44.6001C108 44.6001 109.9 43.2001 109.9 39.8001V31.7001H108L108.1 32.4001ZM105.7 38.7001C104.3 38.6001 103.1 37.4001 103.1 35.9001C103.1 34.5001 104.2 33.2001 105.7 33.1001C106.4 33.1001 107.1 33.4001 107.5 34.0001C108 34.5001 108.2 35.2001 108.1 35.9001C108.2 36.6001 107.9 37.3001 107.5 37.8001C107.1 38.4001 106.4 38.7001 105.7 38.7001ZM132.1 26.8001H127.3V40.2001H129.3V35.1001H132.1C133.7 35.2001 135.2 34.4001 136 33.1001C136.8 31.8001 136.8 30.1001 136 28.7001C135.2 27.5001 133.7 26.7001 132.1 26.8001ZM132.1 33.3001H129.3V28.7001H132.2C133.5 28.7001 134.5 29.7001 134.5 31.0001C134.5 32.3001 133.4 33.3001 132.1 33.3001ZM144.6 31.3001C143.1 31.2001 141.7 32.0001 141 33.4001L142.8 34.1001C143.2 33.4001 143.9 33.0001 144.6 33.1001C145.1 33.0001 145.6 33.2001 146 33.5001C146.4 33.8001 146.7 34.3001 146.7 34.8001V35.0001C146 34.7001 145.3 34.5001 144.6 34.5001C142.7 34.5001 140.7 35.6001 140.7 37.5001C140.7 38.3001 141.1 39.1001 141.7 39.7001C142.3 40.3001 143.2 40.5001 144 40.5001C145 40.6001 146 40.1001 146.6 39.2001H146.7V40.3001H148.6V35.1001C148.7 32.7001 146.9 31.4001 144.6 31.3001ZM144.3 38.7001C143.6 38.7001 142.7 38.4001 142.7 37.6001C142.7 36.5001 143.8 36.2001 144.9 36.2001C145.5 36.2001 146.2 36.3001 146.7 36.7001C146.6 37.8001 145.6 38.7001 144.3 38.7001ZM155.8 31.6001L153.5 37.4001H153.4L151 31.6001H148.8L152.4 39.7001L150.3 44.2001H152.4L157.9 31.5001H155.8V31.6001ZM137.6 40.2001H139.6V26.8001H137.6V40.2001Z" fill="white"/>
<path d="M73.3 19C73.3 19.8 73 20.6 72.5 21.1C71.9 21.7 71 22.1 70.1 22.1C68.7 22.1 67.5 21.3 67 20C66.5 18.7 66.8 17.3 67.7 16.3C68.3 15.7 69.2 15.3 70.1 15.3C70.6 15.3 71 15.4 71.4 15.6C71.8 15.8 72.1 16 72.4 16.3L71.8 16.9C71.4 16.4 70.7 16.1 70 16.1C69.3 16.1 68.7 16.4 68.2 16.9C67.7 17.4 67.5 18 67.5 18.7C67.5 19.7 68.1 20.7 69 21.1C69.9 21.5 71 21.3 71.8 20.6C72.1 20.2 72.3 19.8 72.3 19.3H70V18.5H73.1C73.3 18.7 73.3 18.8 73.3 19ZM78.2 16.3H75.3V18.3H78V19.1H75.3V21.1H78.2V22H74.4V15.6H78.2V16.3ZM81.8 22H81V16.3H79.2V15.5H83.7V16.3H81.8V22ZM86.8 22V15.6H87.6V22H86.8ZM91.4 22H90.6V16.3H88.8V15.5H93.3V16.3H91.5V22H91.4ZM101.6 21.1C100.3 22.4 98.2 22.4 96.8 21.1C95.5 19.8 95.5 17.7 96.8 16.3C98.1 15 100.2 15 101.6 16.3C102.9 17.7 102.9 19.8 101.6 21.1ZM97.5 20.6C98.5 21.6 100.1 21.6 101 20.6C102 19.6 102 17.9 101 16.9C100 15.9 98.5 15.9 97.5 16.9C96.5 17.9 96.5 19.6 97.5 20.6ZM103.7 22V15.6H104.7L107.9 20.6V15.6H108.7V22H107.8L104.5 16.7V22H103.7Z" fill="white" stroke="white" stroke-width="0.5"/>
<path d="M33.3 16.1001C32.9 16.5001 32.8 17.1001 32.8 17.6001V41.4001C32.8 41.9001 32.9 42.5001 33.3 42.9001L33.4 43.0001L46.8 29.7001V29.4001L33.3 16.1001Z" fill="url(#paint0_linear)"/>
<path d="M51.2 34.1001L46.8 29.7001V29.4001L51.2 24.9001L51.3 25.0001L56.6 28.0001C58.1 28.9001 58.1 30.2001 56.6 31.1001L51.3 34.1001H51.2Z" fill="url(#paint1_linear)"/>
<path d="M51.3 34L46.7 29.5L33.3 42.9C33.9 43.5 34.9 43.5 35.5 43L51.3 34Z" fill="url(#paint2_linear)"/>
<path d="M51.3 25.0001L35.5 16.0001C34.8 15.5001 33.9 15.5001 33.3 16.1001L46.8 29.5001L51.3 25.0001Z" fill="url(#paint3_linear)"/>
<path opacity="0.2" d="M51.2 33.9001L35.5 42.8001C34.9 43.3001 34 43.3001 33.3 42.8001L33.2 42.9001L33.3 43.0001C33.9 43.5001 34.8 43.5001 35.5 43.0001L51.3 34.0001L51.2 33.9001Z" fill="black"/>
<path opacity="0.12" d="M33.3 42.7C32.9 42.3 32.8 41.7 32.8 41.2V41.4C32.8 41.9 32.9 42.5 33.3 42.9V42.7ZM56.6 30.9L51.2 33.9L51.3 34L56.6 31C57.2 30.7 57.6 30.1 57.7 29.5C57.6 30.1 57.2 30.6 56.6 30.9Z" fill="black"/>
<path opacity="0.25" d="M35.5 16.2L56.6 28.1C57.2 28.4 57.6 28.9 57.7 29.5C57.6 28.8 57.2 28.2 56.6 28L35.5 16C34 15.1 32.8 15.9 32.8 17.6V17.8C32.8 16.1 34 15.3 35.5 16.2Z" fill="white"/>
<defs>
<linearGradient id="paint0_linear" x1="41.4013" y1="17.4281" x2="29.9247" y2="28.8356" gradientUnits="userSpaceOnUse">
<stop stop-color="#00A0FF"/>
<stop offset="0.01" stop-color="#00A1FF"/>
<stop offset="0.26" stop-color="#00BEFF"/>
<stop offset="0.51" stop-color="#00D2FF"/>
<stop offset="0.76" stop-color="#00DFFF"/>
<stop offset="1" stop-color="#00E3FF"/>
</linearGradient>
<linearGradient id="paint1_linear" x1="58.5864" y1="29.5001" x2="32.4261" y2="29.5001" gradientUnits="userSpaceOnUse">
<stop stop-color="#FFE000"/>
<stop offset="0.41" stop-color="#FFBD00"/>
<stop offset="0.78" stop-color="#FFA500"/>
<stop offset="1" stop-color="#FF9C00"/>
</linearGradient>
<linearGradient id="paint2_linear" x1="47.6441" y1="32.5835" x2="28.0778" y2="52.0238" gradientUnits="userSpaceOnUse">
<stop stop-color="#FF3A44"/>
<stop offset="1" stop-color="#C31162"/>
</linearGradient>
<linearGradient id="paint3_linear" x1="28.6878" y1="15.3423" x2="37.4199" y2="24.0237" gradientUnits="userSpaceOnUse">
<stop stop-color="#32A071"/>
<stop offset="0.07" stop-color="#2DA771"/>
<stop offset="0.48" stop-color="#15CF74"/>
<stop offset="0.8" stop-color="#06E775"/>
<stop offset="1" stop-color="#00F076"/>
</linearGradient>
</defs>
</svg>

<svg width="185" height="60" fill="none" xmlns="http://www.w3.org/2000/svg"><path d="M8 0h169c4.4 0 8 3.6 8 8v44c0 4.4-3.6 8-8 8H8c-4.4 0-8-3.6-8-8V8c0-4.4 3.6-8 8-8z" fill="#240C39"/><path d="M95.7 31.4c-2.5 0-4.6 2.1-4.6 4.6 0 2.5 2.1 4.6 4.6 4.6 2.5 0 4.6-2 4.6-4.6 0-1.2-.5-2.4-1.3-3.3-.9-.9-2.1-1.3-3.3-1.3zm0 7.3c-1.1.1-2.2-.5-2.7-1.6-.5-1-.3-2.3.5-3.1.8-.8 2-1.1 3.1-.7 1.1.4 1.8 1.4 1.8 2.6 0 .7-.2 1.4-.7 1.9-.6.6-1.3.9-2 .9zm-10.1-7.3c-2.5 0-4.6 2.1-4.6 4.6 0 2.5 2.1 4.6 4.6 4.6 2.5 0 4.6-2 4.6-4.6 0-1.2-.5-2.4-1.3-3.3-.9-.9-2.1-1.3-3.3-1.3zm0 7.3c-1.1.1-2.2-.5-2.7-1.6-.5-1-.3-2.3.5-3.1.8-.8 2-1.1 3.1-.7 1.1.4 1.8 1.4 1.8 2.6 0 .7-.2 1.4-.7 1.9-.6.6-1.3.9-2 .9zm-12-5.9v1.9h4.7c-.1.9-.5 1.8-1.1 2.4-.9 1-2.3 1.5-3.6 1.4-2.9 0-5.2-2.3-5.2-5.2 0-2.9 2.3-5.2 5.2-5.2 1.3 0 2.6.5 3.5 1.4l1.4-1.4c-1.3-1.3-3.1-2-4.9-2-2.6-.1-5.1 1.2-6.4 3.5-1.3 2.2-1.3 5 0 7.3 1.3 2.2 3.8 3.6 6.4 3.5 1.9.1 3.7-.6 5-2 1.1-1.2 1.7-2.9 1.7-4.5 0-.4 0-.8-.1-1.2l-6.6.1zm49 1.5c-.6-1.7-2.1-2.9-3.9-2.9-1.2 0-2.3.5-3.2 1.4-.8.9-1.2 2-1.2 3.2 0 1.2.4 2.4 1.3 3.2.9.9 2 1.3 3.3 1.3 1.5 0 3-.7 3.8-2l-1.6-1.1c-.5.8-1.3 1.3-2.3 1.3-1 0-1.8-.5-2.2-1.4l6.2-2.5-.2-.5zm-6.2 1.5c0-.7.2-1.3.6-1.8.5-.5 1.1-.8 1.8-.8s1.4.3 1.7 1l-4.1 1.6zm-5 4.4h2V26.8h-2v13.4zm-3.3-7.8c-.7-.7-1.6-1.1-2.5-1.1-2.5.1-4.4 2.1-4.4 4.6 0 2.5 1.9 4.5 4.4 4.6.9 0 1.8-.4 2.4-1.1h.1v.7c0 1.8-.9 2.7-2.5 2.7-1 0-1.9-.7-2.3-1.6l-1.8.7c.7 1.6 2.3 2.7 4.1 2.7 2.4 0 4.3-1.4 4.3-4.8v-8.1H108l.1.7zm-2.4 6.3c-1.4-.1-2.6-1.3-2.6-2.8 0-1.4 1.1-2.7 2.6-2.8.7 0 1.4.3 1.8.9.5.5.7 1.2.6 1.9.1.7-.2 1.4-.6 1.9-.4.6-1.1.9-1.8.9zm26.4-11.9h-4.8v13.4h2v-5.1h2.8c1.6.1 3.1-.7 3.9-2 .8-1.3.8-3 0-4.4-.8-1.2-2.3-2-3.9-1.9zm0 6.5h-2.8v-4.6h2.9c1.3 0 2.3 1 2.3 2.3 0 1.3-1.1 2.3-2.4 2.3zm12.5-2c-1.5-.1-2.9.7-3.6 2.1l1.8.7c.4-.7 1.1-1.1 1.8-1 .5-.1 1 .1 1.4.4.4.3.7.8.7 1.3v.2c-.7-.3-1.4-.5-2.1-.5-1.9 0-3.9 1.1-3.9 3 0 .8.4 1.6 1 2.2.6.6 1.5.8 2.3.8 1 .1 2-.4 2.6-1.3h.1v1.1h1.9v-5.2c.1-2.4-1.7-3.7-4-3.8zm-.3 7.4c-.7 0-1.6-.3-1.6-1.1 0-1.1 1.1-1.4 2.2-1.4.6 0 1.3.1 1.8.5-.1 1.1-1.1 2-2.4 2zm11.5-7.1l-2.3 5.8h-.1l-2.4-5.8h-2.2l3.6 8.1-2.1 4.5h2.1l5.5-12.7h-2.1v.1zm-18.2 8.6h2V26.8h-2v13.4z" fill="#fff"/><path d="M73.3 19c0 .8-.3 1.6-.8 2.1-.6.6-1.5 1-2.4 1-1.4 0-2.6-.8-3.1-2.1s-.2-2.7.7-3.7c.6-.6 1.5-1 2.4-1 .5 0 .9.1 1.3.3.4.2.7.4 1 .7l-.6.6c-.4-.5-1.1-.8-1.8-.8s-1.3.3-1.8.8-.7 1.1-.7 1.8c0 1 .6 2 1.5 2.4.9.4 2 .2 2.8-.5.3-.4.5-.8.5-1.3H70v-.8h3.1c.2.2.2.3.2.5zm4.9-2.7h-2.9v2H78v.8h-2.7v2h2.9v.9h-3.8v-6.4h3.8v.7zm3.6 5.7H81v-5.7h-1.8v-.8h4.5v.8h-1.9V22zm5 0v-6.4h.8V22h-.8zm4.6 0h-.8v-5.7h-1.8v-.8h4.5v.8h-1.8V22h-.1zm10.2-.9c-1.3 1.3-3.4 1.3-4.8 0-1.3-1.3-1.3-3.4 0-4.8 1.3-1.3 3.4-1.3 4.8 0 1.3 1.4 1.3 3.5 0 4.8zm-4.1-.5c1 1 2.6 1 3.5 0 1-1 1-2.7 0-3.7s-2.5-1-3.5 0-1 2.7 0 3.7zm6.2 1.4v-6.4h1l3.2 5v-5h.8V22h-.9l-3.3-5.3V22h-.8z" fill="#fff" stroke="#fff" stroke-width=".5"/><path d="M33.3 16.1c-.4.4-.5 1-.5 1.5v23.8c0 .5.1 1.1.5 1.5l.1.1 13.4-13.3v-.3L33.3 16.1z" fill="url(#paint0_linear)"/><path d="M51.2 34.1l-4.4-4.4v-.3l4.4-4.5.1.1 5.3 3c1.5.9 1.5 2.2 0 3.1l-5.3 3h-.1z" fill="url(#paint1_linear)"/><path d="M51.3 34l-4.6-4.5-13.4 13.4c.6.6 1.6.6 2.2.1l15.8-9z" fill="url(#paint2_linear)"/><path d="M51.3 25l-15.8-9c-.7-.5-1.6-.5-2.2.1l13.5 13.4 4.5-4.5z" fill="url(#paint3_linear)"/><path opacity=".2" d="M51.2 33.9l-15.7 8.9c-.6.5-1.5.5-2.2 0l-.1.1.1.1c.6.5 1.5.5 2.2 0l15.8-9-.1-.1z" fill="#000"/><path opacity=".12" d="M33.3 42.7c-.4-.4-.5-1-.5-1.5v.2c0 .5.1 1.1.5 1.5v-.2zm23.3-11.8l-5.4 3 .1.1 5.3-3c.6-.3 1-.9 1.1-1.5-.1.6-.5 1.1-1.1 1.4z" fill="#000"/><path opacity=".25" d="M35.5 16.2l21.1 11.9c.6.3 1 .8 1.1 1.4-.1-.7-.5-1.3-1.1-1.5L35.5 16c-1.5-.9-2.7-.1-2.7 1.6v.2c0-1.7 1.2-2.5 2.7-1.6z" fill="#fff"/><defs><linearGradient id="paint0_linear" x1="41.401" y1="17.428" x2="29.925" y2="28.836" gradientUnits="userSpaceOnUse"><stop stop-color="#00A0FF"/><stop offset=".01" stop-color="#00A1FF"/><stop offset=".26" stop-color="#00BEFF"/><stop offset=".51" stop-color="#00D2FF"/><stop offset=".76" stop-color="#00DFFF"/><stop offset="1" stop-color="#00E3FF"/></linearGradient><linearGradient id="paint1_linear" x1="58.586" y1="29.5" x2="32.426" y2="29.5" gradientUnits="userSpaceOnUse"><stop stop-color="#FFE000"/><stop offset=".41" stop-color="#FFBD00"/><stop offset=".78" stop-color="orange"/><stop offset="1" stop-color="#FF9C00"/></linearGradient><linearGradient id="paint2_linear" x1="47.644" y1="32.584" x2="28.078" y2="52.024" gradientUnits="userSpaceOnUse"><stop stop-color="#FF3A44"/><stop offset="1" stop-color="#C31162"/></linearGradient><linearGradient id="paint3_linear" x1="28.688" y1="15.342" x2="37.42" y2="24.024" gradientUnits="userSpaceOnUse"><stop stop-color="#32A071"/><stop offset=".07" stop-color="#2DA771"/><stop offset=".48" stop-color="#15CF74"/><stop offset=".8" stop-color="#06E775"/><stop offset="1" stop-color="#00F076"/></linearGradient></defs></svg>
